X:1
T:Title
%%score { ( 1 3 ) | ( 2 4 ) }
L:1/8
Q:1/4=78
M:2/4
K:F
V:1 treble nm="Grand Piano"
V:3 treble 
V:2 bass 
V:4 bass 
V:1
 FE FC | G^F GC | AA Bc | dd G2 | dd GG | cc FF | [=B,E][B,D] [B,^C][B,D] | %7
w: Florence~W.~Williams * * *|||||||
[M:9/16] z3/2 z/ [B,G]-[B,G]3/2 |[M:2/4] FE FC | G^F GC | AA Bc | dd G2 | dd GG | cc FF | BA ^FG | %15
w: ||||||||
[M:9/16] z3/2 z/ F-F3/2 |[M:2/4] CF EF | BA [D^F][DG] | [DA][DG] FE | DE [A,F]2 | CF EF | %21
w: ||||||
 [^FB][FA] [=Fd][FG] | [EA][EG] [Fc][FA] |[M:9/16] z3/2 z/ F-F3/2 |] %24
w: |||
V:2
 [F,A,C][F,_A,C] [F,=A,C][F,A,] | [F,B,E][F,B,E] [F,B,E][F,B,] | [F,CF][F,CF] [G,CE][A,CF] | %3
 [B,F][B,F] [B,DF]2 | [B,DF][B,DF] [B,CE][B,CE] | [A,CF][A,CF][K:bass] [F,A,C][F,A,C] | %6
 [G,,F,][G,,F,] [G,,F,][G,,F,] |[M:9/16] [G,,F,][G,,F,]/-[G,,F,]/[C,F,] z3/2 | %8
[M:2/4] [F,A,C][F,G,C] [F,A,C][F,A,] | [F,B,E][F,B,E] [F,B,E][F,B,] | [F,CF][F,CF] [G,CE][A,CF] | %11
 [B,F][B,F] [B,DF]2 | [B,DF][B,DF] [B,CE][B,CE] | [A,CF][A,CF][K:bass] [F,A,C][F,A,C] | %14
 [F,DF][F,CF] [D,CD][G,=B,D] |[M:9/16] z3/2 z/ B, z3/2 |[M:2/4] [F,A,][F,A,C] [G,B,C][F,A,C] | %17
 [F,DF][F,CF] [B,,B,][B,,B,] | [B,,B,][B,,B,] [C,G,B,][C,G,B,] | [C,F,=B,][C,G,_B,] [F,,F,]2 | %20
 [F,A,][F,A,C] [G,B,C][F,A,C] | [D,D][D,C] [G,=B,][G,B,] | [C,C][C,B,] [C,A,][C,C] | %23
[M:9/16] z3/2 z/ B, z3/2 |] %24
V:3
 x4 | x4 | x4 | x4 | x4 | x4 | x4 |[M:9/16] [B,E][B,F]/-[B,F]/ z/ z/ E,3/2 |[M:2/4] x4 | x4 | x4 | %11
 x4 | x4 | x4 | x4 |[M:9/16] DE/-E/ z/ z/ A,3/2 |[M:2/4] x4 | x4 | x4 | x4 | x4 | x4 | x4 | %23
[M:9/16] [EA][EG]/-[EG]/ z/ z/ A,3/2 |] %24
V:4
 x4 | x4 | x4 | x4 | x4 | x2[K:bass] x2 | x4 |[M:9/16] x9/2 |[M:2/4] x4 | x4 | x4 | x4 | x4 | %13
 x2[K:bass] x2 | x4 |[M:9/16] [G,=B,][C,_B,C]/-[C,B,C]/[F,C]-[F,C]3/2 |[M:2/4] x4 | x4 | x4 | x4 | %20
 x4 | x4 | x4 |[M:9/16] [C,C][C,B,]/-[C,B,]/[F,C]-[F,C]3/2 |] %24

